usr/share/icons/biglinux-icons-material/symbolic/status/network-cellular-secure-signal-good-symbolic.svg

<svg width="16" height="16.004" version="1.1" xmlns="http://www.w3.org/2000/svg">
 <g transform="translate(-15)" fill="#333333" stroke-linecap="square" stroke-width="1.3333" aria-label="">
  <path transform="translate(15)" d="m12 2v3.1777c0.31966-0.11632 0.65988-0.17773 1-0.17773v-2h1v2.1836c0.057747 0.021323 0.11561 0.041508 0.17188 0.066406 0.30358 0.13035 0.58443 0.31053 0.82812 0.5332v-3.7832h-3zm-4 3v9h1v-6h1c0-0.39903 0.08011-0.79699 0.23633-1.1641l0.003906-0.0097656 0.003907-0.0078125c0.15475-0.34632 0.36754-0.66443 0.63476-0.93164 0.038957-0.038957 0.080012-0.076577 0.12109-0.11328v-0.77344h-3zm6.3906 1.5703c0.0069 0.00653 0.008795 0.016798 0.015625 0.023438 0.0066 0.00681 0.016937 0.00871 0.023438 0.015625l-0.039063-0.039062zm-10.391 1.4297v6h3v-6h-3zm-4 3v3h3v-3h-3z"/>
 </g>
 <path d="m13 6c0.27083 0 0.52864 0.054688 0.77344 0.16406 0.24479 0.10417 0.45573 0.24739 0.63281 0.42969 0.18229 0.17708 0.32552 0.38802 0.42969 0.63281 0.10937 0.24479 0.16406 0.5026 0.16406 0.77344v1h1v5h-6v-5h1v-1c0-0.27083 0.05208-0.52865 0.15625-0.77344 0.10937-0.24479 0.2526-0.45573 0.42969-0.63281 0.18229-0.18229 0.39323-0.32552 0.63281-0.42969 0.24479-0.10937 0.50521-0.16406 0.78125-0.16406zm-1 3h2v-1c0-0.13542-0.02604-0.26302-0.07812-0.38281-0.05208-0.125-0.125-0.23177-0.21875-0.32031-0.08855-0.093747-0.19531-0.16667-0.32031-0.21875-0.11979-0.05208-0.2474-0.07812-0.38281-0.07812-0.14062 0-0.27083 0.02604-0.39062 0.07812s-0.22656 0.125-0.32031 0.21875c-0.08855 0.088547-0.15886 0.19271-0.21094 0.3125s-0.07812 0.25-0.07812 0.39062zm3 1h-4v3h4z" color="#000000" color-rendering="auto" dominant-baseline="auto" fill="#dedede" image-rendering="auto" shape-rendering="auto" solid-color="#000000" stop-color="#000000" style="font-feature-settings:normal;font-variant-alternates:normal;font-variant-caps:normal;font-variant-east-asian:normal;font-variant-ligatures:normal;font-variant-numeric:normal;font-variant-position:normal;font-variation-settings:normal;inline-size:0;isolation:auto;mix-blend-mode:normal;paint-order:stroke fill markers;shape-margin:0;shape-padding:0;text-decoration-color:#000000;text-decoration-line:none;text-decoration-style:solid;text-indent:0;text-orientation:mixed;text-transform:none;white-space:normal"/>
</svg>

<svg xmlns="http://www.w3.org/2000/svg" width="16" height="16.004"><path fill="#333" stroke-linecap="square" stroke-width="1.333" d="M12 2v3.178c.32-.117.66-.178 1-.178V3h1v2.184a2.96 2.96 0 0 1 1 .6V2h-3zM8 5v9h1V8h1c0-.399.08-.797.236-1.164l.004-.01.004-.008A3.107 3.107 0 0 1 11 5.773V5H8zm6.39 1.57c.007.007.01.017.016.024.007.007.017.008.024.015l-.04-.039zM4 8v6h3V8H4zm-4 3v3h3v-3H0z" aria-label=""/><path fill="#dedede" d="M13 6c.27 0 .529.055.773.164.245.104.456.247.633.43.183.177.326.388.43.633.11.244.164.502.164.773v1h1v5h-6V9h1V8a1.955 1.955 0 0 1 .586-1.406A2.033 2.033 0 0 1 13 6zm-1 3h2V8a.95.95 0 0 0-.078-.383.922.922 0 0 0-.219-.32.923.923 0 0 0-.32-.219A.95.95 0 0 0 13 7c-.14 0-.27.026-.39.078a1.027 1.027 0 0 0-.532.531A.97.97 0 0 0 12 8zm3 1h-4v3h4z" color="#000" style="font-feature-settings:normal;font-variant-alternates:normal;font-variant-caps:normal;font-variant-east-asian:normal;font-variant-ligatures:normal;font-variant-numeric:normal;font-variant-position:normal;font-variation-settings:normal;inline-size:0;isolation:auto;mix-blend-mode:normal;paint-order:stroke fill markers;shape-margin:0;shape-padding:0;text-decoration-color:#000;text-decoration-line:none;text-decoration-style:solid;text-indent:0;text-orientation:mixed;text-transform:none;white-space:normal"/></svg>
